static/assets/images/exchanges/balancer-1.svg

<svg width="307" height="256" viewBox="0 0 307 256" fill="none" xmlns="http://www.w3.org/2000/svg">
<path d="M225.824 156.378C274.138 165.299 307 182.861 307 203.072C307 232.32 238.27 256 153.5 256C68.7296 256 0 232.307 0 203.072C0 182.861 32.8746 165.299 81.1759 156.378C102.167 161.83 126.957 164.966 153.5 164.966C180.043 164.966 204.833 161.83 225.824 156.39V156.378ZM207.327 70.656C248.363 77.4912 276.633 91.8656 276.633 108.518C276.633 131.75 221.5 150.592 153.5 150.592C85.4995 150.592 30.3674 131.75 30.3674 108.518C30.3674 91.8784 58.637 77.4912 99.6727 70.656C115.445 74.6624 133.839 76.9536 153.5 76.9536C173.161 76.9536 191.555 74.6496 207.327 70.656ZM154.063 0C204.986 0 246.278 14.2592 246.278 31.8592C246.278 49.4464 204.986 63.7056 154.063 63.7056C103.139 63.7056 61.8477 49.4464 61.8477 31.8592C61.8477 14.2592 103.139 0 154.063 0Z" fill="white"/>
</svg>

<svg xmlns="http://www.w3.org/2000/svg" fill="none" viewBox="0 0 307 256"><path fill="#fff" d="M225.824 156.378C274.138 165.299 307 182.861 307 203.072 307 232.32 238.27 256 153.5 256S0 232.307 0 203.072c0-20.211 32.875-37.773 81.176-46.694 20.991 5.452 45.781 8.588 72.324 8.588s51.333-3.136 72.324-8.576zm-18.497-85.722c41.036 6.835 69.306 21.21 69.306 37.862 0 23.232-55.133 42.074-123.133 42.074S30.367 131.75 30.367 108.518c0-16.64 28.27-31.027 69.306-37.862 15.772 4.006 34.166 6.298 53.827 6.298s38.055-2.304 53.827-6.298M154.063 0c50.923 0 92.215 14.26 92.215 31.86 0 17.586-41.292 31.846-92.215 31.846s-92.215-14.26-92.215-31.847C61.848 14.26 103.139 0 154.063 0"/></svg>
